src/assets/ETH.svg

<svg fill="none" height="28" viewBox="0 0 28 28" width="28" xmlns="http://www.w3.org/2000/svg" xmlns:xlink="http://www.w3.org/1999/xlink"><clipPath id="a"><rect height="28" rx="14" width="28"/></clipPath><g clip-path="url(#a)"><rect fill="#987de8" height="28" rx="14" width="28"/><path clip-rule="evenodd" d="m7.22377 13.2378 5.58443-9.0067c.5475-.88301 1.8322-.883 2.3797.00002l5.5861 9.00978c.2731.4404.4186.9479.4203 1.4661l.0001.0131c.002.597-.1869 1.179-.5391 1.661l-5.1497 7.0494c-.7458 1.0209-2.2695 1.0207-3.015-.0004l-5.14859-7.0523c-.34998-.4794-.53857-1.0576-.53854-1.6511v-.0135c.00002-.5214.14558-1.0323.4203-1.4754z" fill="#fff" fill-rule="evenodd"/><path d="m14.3921 4.71886c-.0915-.14445-.2428-.21667-.3941-.21666v6.9311l5.8789 2.5804c.038-.2174-.0004-.4493-.1262-.6522z" fill="#643cdd"/><path d="m13.9981 4.5022c-.1514-.00001-.3028.07237-.3943.21714l-5.36141 8.64696c-.12342.2018-.16089.4318-.12309.6475l5.8788-2.5805z" fill="#bdadeb"/><path d="m13.998 23.5873c.1419.0001.2838-.0637.377-.1913l5.2431-7.1772c.1434-.2029-.0899-.4612-.3071-.3365l-4.6158 2.649c-.2159.1238-.4565.1858-.6972.1857z" fill="#643cdd"/><path d="m8.38405 16.2222 5.23725 7.1737c.0931.1276.235.1914.3768.1915v-4.8704c-.2406 0-.4812-.062-.697-.1859l-4.6124-2.6488c-.21847-.1255-.4532.1365-.30465.3399z" fill="#bdadeb"/><path d="m19.8769 14.0138-5.8789-2.5807v6.1313c.2408 0 .4815-.0621.6975-.1861l4.7364-2.7213c.245-.1445.3995-.3836.445-.6432z" fill="#401ab3"/><path d="m13.9981 17.5646v-6.1491l-5.87896 2.5974c.04586.2633.20387.5055.4546.6496l4.72686 2.7159c.2159.1241.4567.1861.6975.1862z" fill="#7c5ae2"/></g><rect height="27" rx="13.5" stroke="#000" stroke-opacity=".1" width="27" x=".5" y=".5"/></svg>

<svg width="28" height="28" viewBox="0 0 28 28" fill="none" xmlns="http://www.w3.org/2000/svg">
<g clip-path="url(#clip0_302_18780)">
<rect width="28" height="28" rx="14" fill="#987DE8"/>
<path fill-rule="evenodd" clip-rule="evenodd" d="M7.22377 13.2378L12.8082 4.2311C13.3557 3.34809 14.6404 3.3481 15.1879 4.23112L20.774 13.2409C21.0471 13.6813 21.1926 14.1888 21.1943 14.707L21.1944 14.7201C21.1964 15.3171 21.0075 15.8991 20.6553 16.3811L15.5056 23.4305C14.7598 24.4514 13.2361 24.4512 12.4906 23.4301L7.34201 16.3778C6.99203 15.8984 6.80344 15.3202 6.80347 14.7267L6.80347 14.7132C6.80349 14.1918 6.94905 13.6809 7.22377 13.2378Z" fill="white"/>
<path d="M14.3921 4.71886C14.3006 4.57441 14.1493 4.50219 13.998 4.5022V11.4333L19.8769 14.0137C19.9149 13.7963 19.8765 13.5644 19.7507 13.3615L14.3921 4.71886Z" fill="#643CDD"/>
<path d="M13.9981 4.5022C13.8467 4.50219 13.6953 4.57457 13.6038 4.71934L8.24239 13.3663C8.11897 13.5681 8.0815 13.7981 8.1193 14.0138L13.9981 11.4333V4.5022Z" fill="#BDADEB"/>
<path d="M13.998 23.5873C14.1399 23.5874 14.2818 23.5236 14.375 23.396L19.6181 16.2188C19.7615 16.0159 19.5282 15.7576 19.311 15.8823L14.6952 18.5313C14.4793 18.6551 14.2387 18.7171 13.998 18.717V23.5873Z" fill="#643CDD"/>
<path d="M8.38405 16.2222L13.6213 23.3959C13.7144 23.5235 13.8563 23.5873 13.9981 23.5874V18.717C13.7575 18.717 13.5169 18.655 13.3011 18.5311L8.6887 15.8823C8.47023 15.7568 8.2355 16.0188 8.38405 16.2222Z" fill="#BDADEB"/>
<path d="M19.8769 14.0138L13.998 11.4331V17.5644C14.2388 17.5644 14.4795 17.5023 14.6955 17.3783L19.4319 14.657C19.6769 14.5125 19.8314 14.2734 19.8769 14.0138Z" fill="#401AB3"/>
<path d="M13.9981 17.5646V11.4155L8.11914 14.0129C8.165 14.2762 8.32301 14.5184 8.57374 14.6625L13.3006 17.3784C13.5165 17.5025 13.7573 17.5645 13.9981 17.5646Z" fill="#7C5AE2"/>
</g>
<rect x="0.5" y="0.5" width="27" height="27" rx="13.5" stroke="black" stroke-opacity="0.1"/>
<defs>
<clipPath id="clip0_302_18780">
<rect width="28" height="28" rx="14" fill="white"/>
</clipPath>
</defs>
</svg>
